X:53
T:Tcha Lo Mair Ontouno
R:Danse
M:2/4
L:1/16
N:Anim
N:La Bourre 4th edition 1929, page 59
Z:Steve Mansfield www.lesession.co.uk May 2012
K:G
|: G A B A G2 D2 | G A B c d c B A |
G A B A G2 D2 | G A B c d4 :|
|: B d d d B d d d | e d c B c2 A2 |
A c c c A c c c | d c B A G4 :|

